X:1
T:Lean on His Arms
T:Lean on His Arms
T:Lewis Edgar Jones
T:Lewis Edgar Jones, 1903
T:Public Domain Courtesy of the Cyber Hymnal™
C:Lewis Edgar Jones
Z:Public Domain
Z:Courtesy of the Cyber Hymnal™
%%score ( 1 2 ) ( 3 4 )
L:1/8
Q:1/4=100
M:4/4
K:G
V:1 treble 
V:2 treble 
V:3 bass 
V:4 bass 
V:1
 [B,D]2 | [DB]3 [DB] [DB][^C^A][DB][E=c] | ([DB]3 [CA]) [B,G]2 D2 | [FA] [FA]2 [^E^G] (A2 c2) | %4
w: 1.~Just|lean up- on the arms of|Je- * sus, He’ll|help you a- long, *|
w: 2.~Just|lean up- on the arms of|Je- * sus. He’ll|bright- en the way, *|
w: 3.~Just|lean up- on the arms of|Je- * sus, O|bring ev- ’ry care, *|
w: 4.~Just|lean up- on the arms of|Je- * sus, Then|leave all to Him, *|
 [GB] [GB]2 [FA] G2 D2 | [GB]3 [GB] [GB][G^A][GB][Gc] | (B3 A) G2 [GB]2 | [Gd]3 [Fc] [GB]2 [DA]2 | %8
w: help you a- long If|you will trust His love un-|fail- * ing, He’ll|fill your heart with|
w: bright- en the way, Just|fol- low glad- ly where He|lead- * eth, His|gen- tle voice o-|
w: bring ev- ’ry care! The|bur- den that has seemed so|heav- * y, Take|to the Lord in|
w: leave all to Him; His|heart is full of love and|mer- * cy, His|eyes are nev- er|
 [DG]6 z2 ||"^Refrain" [GB] B2 [G^A] B4 | [Fc][GB][DA][^CG] [DA]4 | [Fc] c2 [FB] c4 | %12
w: song.||||
w: bey.|Lean on His arms,|trust- ing in His love;|Lean on His arms,|
w: prayer.||||
w: dim.||||
 [Gd][Fc][GB][DA] [DB]4 | [Gd] d2 [G^c] | d4 | [Ge][Gd][Fc][GB] [EA]2 [Ec]2 | %16
w: ||||
w: all His mer- cies prove;|Lean on His|arms,|look- ing home a- bove, Just|
w: ||||
w: ||||
 [GB] [GB]2 [DG] [DA]2 [DF]2 | [DG]6 |] %18
w: ||
w: lean on the Sav- ior’s|arms!|
w: ||
w: ||
V:2
 x2 | x8 | x6 D2 | x4 F4 | x4 G2 D2 | x8 | G4 G2 x2 | x8 | x8 || x (GG) (G2 GG) x | x8 | %11
 x (FF) (F2 F2) x | x8 | x (GG) x | (G2 GG) | x8 | x8 | x6 |] %18
V:3
 G,2 | G,3 G, G,G,G,G, | G,4 G,2 [G,B,]2 | [D,C] [D,C]2 [D,B,] (C2 A,2) | %4
w: ~|~ ~ ~ ~ ~ ~|~ ~ ~|~ ~ ~ ~ *|
 G, [G,D]2 [D,C] [G,,B,]2 [G,B,]2 | [G,D]3 [G,D] [G,D][G,^C][G,D][G,E] | (D3 C) [G,B,]2 [G,D]2 | %7
w: ~ ~ ~ ~ ~|~ ~ ~ ~ ~ ~|~ * ~ ~|
 [D,B,]3 [D,A,] [D,D]2 [D,C]2 | [G,,G,B,]6 z2 || [G,D] D2 [G,^C] D4 | %10
w: ~ ~ ~ ~|~|Lean up- on His|
 [A,D][G,D][F,D][E,A,] [D,F,]4 | [D,A,] A,2 [D,^G,] A,4 | [D,B,][D,A,][D,G,][D,F,] G,4 | %13
w: arms, ful- ly ~ ~|~ ~ ~ Lean|up- on His arms, and|
 [G,B,] B,2 [G,^A,] | B,4 | C[B,D][A,D][G,D] [C,C]2 [A,,E]2 | [D,D] [D,D]2 [D,B,] [D,B,]2 [D,A,]2 | %17
w: ~ ~ ~|~|~ Lean up- on His arms,|ev- er * * *|
 [G,,G,B,]6 |] %18
w: |
V:4
 G,2 | G,3 G, G,G,G,G, | G,4 G,2 x2 | x4 D,4 | G, x7 | x8 | G,4 x4 | x8 | x8 || x G,G, G,2 G,G, x | %10
 x8 | x D,D, D,2 D,2 x | x4 G,4 | x G,G, x | G,2 G,G, | C x7 | x8 | x6 |] %18

